svgs/regular/face-pensive.svg

<svg xmlns="http://www.w3.org/2000/svg" viewBox="0 0 512 512"><!--! Font Awesome Pro 6.5.1 by @fontawesome - https://fontawesome.com License - https://fontawesome.com/license (Commercial License) Copyright 2023 Fonticons, Inc. --><path d="M464 256A208 208 0 1 0 48 256a208 208 0 1 0 416 0zM0 256a256 256 0 1 1 512 0A256 256 0 1 1 0 256zM208 368h96c13.3 0 24 10.7 24 24s-10.7 24-24 24H208c-13.3 0-24-10.7-24-24s10.7-24 24-24zm143.6-84c10.6 0 19.9-3.8 25.4-9.7c7.6-8.1 20.2-8.5 28.3-.9s8.5 20.2 .9 28.3C391.7 317.2 371 324 351.6 324s-40.1-6.8-54.6-22.3c-7.6-8.1-7.1-20.7 .9-28.3s20.7-7.1 28.3 .9c5.5 5.8 14.8 9.7 25.4 9.7zm-217.4-9.7c5.5 5.8 14.8 9.7 25.4 9.7s19.9-3.8 25.4-9.7c7.6-8.1 20.2-8.5 28.3-.9s8.5 20.2 .9 28.3C199.7 317.2 179 324 159.6 324s-40.1-6.8-54.6-22.3c-7.6-8.1-7.1-20.7 .9-28.3s20.7-7.1 28.3 .9zM81.7 215.2c-4-7.9-.7-17.5 7.2-21.5l22.9-11.4c14.5-7.2 27.2-17.6 37.4-30.2l14.4-18c5.5-6.9 15.6-8 22.5-2.5s8 15.6 2.5 22.5l-14.4 18c-13 16.3-29.4 29.5-48 38.8l-22.9 11.4c-7.9 4-17.5 .7-21.5-7.2zm341.5-21.5c7.9 4 11.1 13.6 7.2 21.5s-13.6 11.1-21.5 7.2L386 210.9c-18.6-9.3-35-22.6-48.1-38.8l-14.4-18c-5.5-6.9-4.4-17 2.5-22.5s17-4.4 22.5 2.5l14.4 18c10.1 12.7 22.9 23 37.4 30.2l22.9 11.4z"/></svg>

<svg xmlns="http://www.w3.org/2000/svg" viewBox="0 0 512 512"><!--! Font Awesome Pro 6.1.1 by @fontawesome - https://fontawesome.com License - https://fontawesome.com/license (Commercial License) Copyright 2022 Fonticons, Inc. --><path d="M304 368C317.3 368 328 378.7 328 392C328 405.3 317.3 416 304 416H208C194.7 416 184 405.3 184 392C184 378.7 194.7 368 208 368H304zM377 274.3C384.6 266.3 397.2 265.9 405.3 273.4C413.4 280.1 413.8 293.6 406.2 301.7C391.7 317.2 370.1 324 351.6 324C332.3 324 311.6 317.2 297 301.7C289.5 293.6 289.9 280.1 297.9 273.4C306 265.9 318.7 266.3 326.2 274.3C331.7 280.2 340.1 284 351.6 284C362.3 284 371.6 280.2 377 274.3zM134.2 274.3C139.7 280.2 148.1 284 159.6 284C170.3 284 179.6 280.2 185 274.3C192.6 266.3 205.2 265.9 213.3 273.4C221.4 280.1 221.8 293.6 214.2 301.7C199.7 317.2 178.1 324 159.6 324C140.3 324 119.6 317.2 105 301.7C97.48 293.6 97.89 280.1 105.9 273.4C114 265.9 126.7 266.3 134.2 274.3V274.3zM81.69 215.2C77.74 207.3 80.94 197.6 88.84 193.7L111.7 182.3C126.2 175 138.9 164.7 149.1 152.1L163.5 134C169 127.1 179.1 125.1 185.1 131.5C192.9 137 194 147.1 188.5 153.1L174.1 172C161 188.3 144.6 201.6 126 210.9L103.2 222.3C95.25 226.3 85.64 223.1 81.69 215.2V215.2zM423.2 193.7C431.1 197.6 434.3 207.3 430.3 215.2C426.4 223.1 416.7 226.3 408.8 222.3L385.1 210.9C367.4 201.6 350.1 188.3 337.9 172L323.5 153.1C317.1 147.1 319.1 137 326 131.5C332.9 125.1 342.1 127.1 348.5 134L362.9 152.1C373.1 164.7 385.8 175 400.3 182.3L423.2 193.7zM512 256C512 397.4 397.4 512 256 512C114.6 512 0 397.4 0 256C0 114.6 114.6 0 256 0C397.4 0 512 114.6 512 256zM256 48C141.1 48 48 141.1 48 256C48 370.9 141.1 464 256 464C370.9 464 464 370.9 464 256C464 141.1 370.9 48 256 48z"/></svg>
